assets/icons/group-24.svg

<svg width="24" height="24" viewBox="0 0 24 24" fill="none" xmlns="http://www.w3.org/2000/svg">
<path fill-rule="evenodd" clip-rule="evenodd" d="M9.62057 0.99997C7.5132 0.99997 5.80485 2.79083 5.80485 4.99997C5.80485 7.20911 7.5132 8.99997 9.62057 8.99997C11.7279 8.99997 13.4363 7.20911 13.4363 4.99997C13.4363 2.79083 11.7279 0.99997 9.62057 0.99997ZM7.71271 4.99997C7.71271 3.8954 8.56689 2.99997 9.62057 2.99997C10.6742 2.99997 11.5284 3.8954 11.5284 4.99997C11.5284 6.10454 10.6742 6.99997 9.62057 6.99997C8.56688 6.99997 7.71271 6.10454 7.71271 4.99997Z" fill="#F2F2F2"/>
<path fill-rule="evenodd" clip-rule="evenodd" d="M9.62057 9.99997C6.41238 9.99997 4.47492 11.2855 3.35872 12.8539C2.28199 14.3669 2.05494 16.0216 2.00452 16.6712C1.96339 17.2012 2.20553 17.6971 2.61825 17.9788C2.99878 18.2385 3.80925 18.7375 4.98349 19.1747C5.48789 21.3697 7.3721 23 9.62057 23C11.869 23 13.7532 21.3697 14.2576 19.1747C15.4319 18.7375 16.2424 18.2385 16.6229 17.9788C17.0356 17.6971 17.2777 17.2012 17.2366 16.6712C17.1862 16.0216 16.9591 14.3669 15.8824 12.8539C14.7662 11.2855 12.8287 9.99997 9.62057 9.99997ZM6.10385 17.4568C5.10914 17.138 4.37386 16.7476 3.94522 16.4866C4.03112 15.8946 4.26444 14.9259 4.8879 14.0499C5.61734 13.0249 6.9686 12 9.62057 12C12.2725 12 13.6238 13.0249 14.3532 14.0499C14.9767 14.9259 15.21 15.8946 15.2959 16.4866C14.8673 16.7476 14.132 17.138 13.1373 17.4568C12.7704 17.5744 12.5064 17.911 12.4672 18.311C12.3194 19.8212 11.1007 21 9.62057 21C8.14044 21 6.92173 19.8212 6.7739 18.311C6.73474 17.911 6.47075 17.5744 6.10385 17.4568Z" fill="#F2F2F2"/>
<path d="M14.3794 0.999969C14.2212 0.999969 14.0652 1.01007 13.912 1.02968C14.4214 1.63424 14.8163 2.34725 15.0612 3.13145C15.7782 3.41911 16.2873 4.14721 16.2873 4.99997C16.2873 5.85273 15.7782 6.58083 15.0612 6.86849C14.8305 7.60707 14.4668 8.28251 13.9997 8.86367C14.0971 8.90729 14.1931 8.95236 14.2875 8.99883C14.3181 8.99959 14.3487 8.99997 14.3794 8.99997C16.4868 8.99997 18.1952 7.20911 18.1952 4.99997C18.1952 2.79083 16.4868 0.999969 14.3794 0.999969Z" fill="#F2F2F2"/>
<path d="M14.3794 23C14.351 23 14.3226 22.9997 14.2943 22.9992C14.9276 22.3482 15.4376 21.5659 15.7846 20.6945C16.6615 20.2994 17.2979 19.9046 17.6639 19.6548C18.5305 19.0634 19.089 18.0698 19.1445 16.9702C19.5264 16.7929 19.832 16.6223 20.0548 16.4866C19.9689 15.8946 19.7356 14.9259 19.1121 14.0499C18.8941 13.7435 18.6205 13.4372 18.2733 13.1582C18.0487 12.6646 17.7665 12.1566 17.4116 11.658C17.0146 11.1001 16.5464 10.5817 16.0029 10.1209C18.2637 10.4758 19.7276 11.5701 20.6413 12.8539C21.718 14.3669 21.9451 16.0216 21.9955 16.6712C22.0366 17.2012 21.7945 17.6971 21.3818 17.9788C21.0012 18.2385 20.1907 18.7375 19.0165 19.1747C18.5121 21.3697 16.6279 23 14.3794 23Z" fill="#F2F2F2"/>
</svg>

<svg xmlns="http://www.w3.org/2000/svg" width="24" height="24" viewBox="0 0 24 24"><path fill-rule="evenodd" d="M9.62 1C7.514 1 5.806 2.79 5.806 5S7.513 9 9.62 9s3.815-1.79 3.815-4-1.708-4-3.815-4zM7.714 5c0-1.105.854-2 1.908-2 1.053 0 1.907.895 1.907 2s-.854 2-1.907 2c-1.054 0-1.908-.895-1.908-2zm1.906 5c-3.208 0-5.145 1.286-6.261 2.854-1.077 1.513-1.304 3.168-1.354 3.817-.042.53.2 1.026.613 1.308.38.26 1.191.759 2.365 1.196C5.488 21.37 7.373 23 9.621 23c2.248 0 4.132-1.63 4.637-3.825a11.18 11.18 0 002.365-1.196c.413-.282.655-.778.614-1.308-.05-.65-.278-2.304-1.355-3.817C14.766 11.286 12.83 10 9.621 10zm-3.516 7.457a10.21 10.21 0 01-2.159-.97c.086-.592.32-1.561.943-2.437.73-1.025 2.08-2.05 4.733-2.05 2.652 0 4.003 1.025 4.732 2.05.624.876.857 1.845.943 2.437a10.14 10.14 0 01-2.159.97.99.99 0 00-.67.854C12.32 19.821 11.101 21 9.621 21s-2.7-1.179-2.847-2.689a.99.99 0 00-.67-.854z"/><path d="M14.38 1c-.159 0-.315.01-.468.03a6.07 6.07 0 011.15 2.101c.716.288 1.225 1.016 1.225 1.869s-.509 1.58-1.226 1.868A6.076 6.076 0 0114 8.864c.097.043.193.088.287.135L14.38 9c2.108 0 3.816-1.79 3.816-4s-1.708-4-3.816-4zm0 22h-.086a7.04 7.04 0 001.49-2.305 12.4 12.4 0 001.88-1.04 3.457 3.457 0 001.48-2.685 9.21 9.21 0 00.91-.483c-.085-.592-.318-1.561-.942-2.437a4.44 4.44 0 00-.839-.892 9.042 9.042 0 00-.861-1.5 8.378 8.378 0 00-1.41-1.537c2.262.355 3.726 1.45 4.64 2.733 1.076 1.513 1.303 3.168 1.354 3.817a1.444 1.444 0 01-.614 1.308c-.38.26-1.191.759-2.366 1.196C18.512 21.37 16.629 23 14.38 23z"/></svg>
